svg/u1f523.svg

<svg viewBox="0 0 128 128" xmlns="http://www.w3.org/2000/svg">
  <g>
    <path d="M116,4H12c-4.4,0-8,3.6-8,8v104c0,4.4,3.6,8,8,8h104c4.4,0,8-3.6,8-8V12C124,7.6,120.4,4,116,4z" fill="#427687"/>
    <path d="M109.7,4H11.5C7.4,4,4,7.4,4,11.5v97.9c0,4.2,3.4,7.5,7.5,7.5h98.1c4.2,0,7.5-3.4,7.5-7.5V11.5 C117.3,7.4,113.8,4,109.7,4z" fill="#8CAFBF"/>
  </g>
  <path d="M39.7,12.9c0-2.3-1.6-3-10.8-2.7c-7.7,0.3-11.5,1.2-13.8,4 s-2.9,8.5-3,15.3c0,4.8,0,9.3,2.5,9.3c3.4,0,3.4-7.9,6.2-12.3C26.2,17.8,39.7,15.9,39.7,12.9z" opacity="0.5" fill="#B4E1ED" enable-background="new "/>
  <path d="M59.48,104.41h-8.62l-2.63-2.58c-2.91,2.03-6.2,3.04-9.88,3.04c-3.72,0-6.67-0.85-8.85-2.56 c-2.18-1.71-3.27-4.02-3.27-6.93c0-2.09,0.46-3.87,1.38-5.34c0.92-1.47,2.5-2.85,4.74-4.13c-1.14-1.31-1.97-2.56-2.49-3.76 c-0.52-1.2-0.78-2.5-0.78-3.92c0-2.32,0.89-4.18,2.66-5.6c1.78-1.42,4.15-2.13,7.12-2.13c2.84,0,5.1,0.66,6.8,1.98 c1.7,1.32,2.55,3.08,2.55,5.29c0,1.81-0.53,3.47-1.58,4.97c-1.05,1.5-2.75,2.93-5.1,4.29l6.49,6.33c1.08-1.78,2.02-4.08,2.81-6.88 h7.27c-0.55,2.06-1.3,4.07-2.26,6.03c-0.96,1.96-2.05,3.69-3.27,5.2L59.48,104.41z M33.57,94.71c0,1.31,0.49,2.35,1.48,3.13 c0.98,0.78,2.24,1.17,3.78,1.17c1.92,0,3.65-0.46,5.19-1.4l-7.59-7.54c-0.88,0.67-1.58,1.37-2.09,2.1 C33.83,92.91,33.57,93.75,33.57,94.71z M41.78,78.5c0-0.81-0.27-1.44-0.82-1.91c-0.55-0.47-1.26-0.7-2.13-0.7 c-1.02,0-1.83,0.24-2.41,0.73c-0.59,0.49-0.88,1.18-0.88,2.08c0,1.34,0.72,2.82,2.17,4.44c1.31-0.73,2.32-1.45,3.02-2.16 C41.43,80.27,41.78,79.45,41.78,78.5z" fill="#FAFAFA"/>
  <path d="M74.32,85.7c-1.32-0.75-2.36-1.76-3.11-3.04c-0.75-1.27-1.13-2.68-1.13-4.22 c0-1.54,0.38-2.94,1.13-4.22c0.75-1.27,1.79-2.29,3.11-3.04c1.32-0.75,2.8-1.13,4.44-1.13c1.6,0,3.06,0.38,4.39,1.13 c1.32,0.75,2.36,1.77,3.11,3.04c0.75,1.28,1.13,2.68,1.13,4.22c0,1.54-0.38,2.94-1.13,4.22c-0.75,1.28-1.79,2.29-3.11,3.04 c-1.32,0.75-2.79,1.13-4.39,1.13C77.12,86.83,75.64,86.46,74.32,85.7z M81.18,81.04c0.64-0.65,0.96-1.52,0.96-2.6 c0-1.08-0.32-1.94-0.96-2.6c-0.64-0.65-1.45-0.98-2.43-0.98c-0.95,0-1.75,0.33-2.4,1c-0.65,0.67-0.98,1.53-0.98,2.57 c0,1.05,0.33,1.91,0.98,2.57c0.65,0.67,1.46,1.01,2.4,1.01C79.74,82.03,80.55,81.7,81.18,81.04z M75.31,102.57l21.77-32.51l3.87,2.6 l-21.77,32.51L75.31,102.57z M93.11,104.04c-1.32-0.75-2.36-1.77-3.11-3.04c-0.75-1.27-1.13-2.68-1.13-4.22 c0-1.54,0.38-2.94,1.13-4.22c0.75-1.27,1.79-2.29,3.11-3.04c1.32-0.75,2.8-1.13,4.44-1.13c1.6,0,3.07,0.38,4.39,1.13 c1.32,0.75,2.36,1.77,3.11,3.04c0.75,1.28,1.13,2.68,1.13,4.22c0,1.54-0.38,2.94-1.13,4.22c-0.75,1.28-1.79,2.29-3.11,3.04 c-1.32,0.75-2.79,1.13-4.39,1.13C95.91,105.17,94.43,104.79,93.11,104.04z M99.98,99.38c0.64-0.65,0.96-1.52,0.96-2.6 c0-1.08-0.32-1.94-0.96-2.6c-0.64-0.65-1.45-0.98-2.43-0.98c-0.95,0-1.75,0.33-2.4,1c-0.65,0.67-0.98,1.53-0.98,2.57 c0,1.05,0.33,1.91,0.98,2.57c0.65,0.67,1.45,1.01,2.4,1.01C98.53,100.36,99.34,100.04,99.98,99.38z" fill="#FAFAFA"/>
  <g>
    <rect height="5.81" fill="#FAFAFA" width="24.41" x="27.67" y="23.31"/>
    <polygon points="27.67,39.12 36.97,39.12 36.97,56.42 42.78,56.42 42.78,39.12 52.07,39.12 52.07,33.31 27.67,33.31 " fill="#FAFAFA"/>
  </g>
  <path d="M84.38,24.18v22.56c-0.83-0.28-1.75-0.45-2.72-0.45c-3.76,0-6.8,2.37-6.8,5.29 c0,2.92,3.04,5.29,6.8,5.29c3.69,0,6.67-2.29,6.78-5.14h0.02V30.62l8.15-2.6V20.6L84.38,24.18z" fill="#FAFAFA"/>
</svg>

<svg viewBox="0 0 128 128" xmlns="http://www.w3.org/2000/svg">
  <defs/>
  <path d="M116,4 L12,4 C7.6,4 4,7.6 4,12 L4,116 C4,120.4 7.6,124 12,124 L116,124 C120.4,124 124,120.4 124,116 L124,12 C124,7.6 120.4,4 116,4 Z" fill="#427687"/>
  <path d="M109.7,4 L11.5,4 C7.4,4 4,7.4 4,11.5 L4,109.4 C4,113.6 7.4,116.9 11.5,116.9 L109.6,116.9 C113.8,116.9 117.1,113.5 117.1,109.4 L117.1,11.5 C117.3,7.4 113.8,4 109.7,4 Z" fill="#8CAFBF"/>
  <path d="M39.7,12.9 C39.7,10.6 38.1,9.9 28.9,10.2 C21.2,10.5 17.4,11.4 15.1,14.2 C12.8,17 12.2,22.7 12.1,29.5 C12.1,34.3 12.1,38.8 14.6,38.8 C18,38.8 18,30.9 20.8,26.5 C26.2,17.8 39.7,15.9 39.7,12.9 Z" fill="#B4E1ED" opacity="0.5"/>
  <path d="M59.48,104.41 L50.86,104.41 L48.23,101.83 C45.32,103.86 42.03,104.87 38.35,104.87 C34.63,104.87 31.68,104.02 29.5,102.31 C27.32,100.6 26.23,98.29 26.23,95.38 C26.23,93.29 26.69,91.51 27.61,90.04 C28.53,88.57 30.11,87.19 32.35,85.91 C31.21,84.6 30.38,83.35 29.86,82.15 C29.34,80.95 29.08,79.65 29.08,78.23 C29.08,75.91 29.97,74.05 31.74,72.63 C33.52,71.21 35.89,70.5 38.86,70.5 C41.7,70.5 43.96,71.16 45.66,72.48 C47.36,73.8 48.21,75.56 48.21,77.77 C48.21,79.58 47.68,81.24 46.63,82.74 C45.58,84.24 43.88,85.67 41.53,87.03 L48.02,93.36 C49.1,91.58 50.04,89.28 50.83,86.48 L58.1,86.48 C57.55,88.54 56.8,90.55 55.84,92.51 C54.88,94.47 53.79,96.2 52.57,97.71 L59.48,104.41 Z M33.57,94.71 C33.57,96.02 34.06,97.06 35.05,97.84 C36.03,98.62 37.29,99.01 38.83,99.01 C40.75,99.01 42.48,98.55 44.02,97.61 L36.43,90.07 C35.55,90.74 34.85,91.44 34.34,92.17 C33.83,92.91 33.57,93.75 33.57,94.71 Z M41.78,78.5 C41.78,77.69 41.51,77.06 40.96,76.59 C40.41,76.12 39.7,75.89 38.83,75.89 C37.81,75.89 37,76.13 36.42,76.62 C35.83,77.11 35.54,77.8 35.54,78.7 C35.54,80.04 36.26,81.52 37.71,83.14 C39.02,82.41 40.03,81.69 40.73,80.98 C41.43,80.27 41.78,79.45 41.78,78.5 Z" fill="#FAFAFA"/>
  <path d="M74.32,85.7 C73,84.95 71.96,83.94 71.21,82.66 C70.46,81.39 70.08,79.98 70.08,78.44 C70.08,76.9 70.46,75.5 71.21,74.22 C71.96,72.95 73,71.93 74.32,71.18 C75.64,70.43 77.12,70.05 78.76,70.05 C80.36,70.05 81.82,70.43 83.15,71.18 C84.47,71.93 85.51,72.95 86.26,74.22 C87.01,75.5 87.39,76.9 87.39,78.44 C87.39,79.98 87.01,81.38 86.26,82.66 C85.51,83.94 84.47,84.95 83.15,85.7 C81.83,86.45 80.36,86.83 78.76,86.83 C77.12,86.83 75.64,86.46 74.32,85.7 Z M81.18,81.04 C81.82,80.39 82.14,79.52 82.14,78.44 C82.14,77.36 81.82,76.5 81.18,75.84 C80.54,75.19 79.73,74.86 78.75,74.86 C77.8,74.86 77,75.19 76.35,75.86 C75.7,76.53 75.37,77.39 75.37,78.43 C75.37,79.48 75.7,80.34 76.35,81 C77,81.67 77.81,82.01 78.75,82.01 C79.74,82.03 80.55,81.7 81.18,81.04 Z M75.31,102.57 L97.08,70.06 L100.95,72.66 L79.18,105.17 L75.31,102.57 Z M93.11,104.04 C91.79,103.29 90.75,102.27 90,101 C89.25,99.73 88.87,98.32 88.87,96.78 C88.87,95.24 89.25,93.84 90,92.56 C90.75,91.29 91.79,90.27 93.11,89.52 C94.43,88.77 95.91,88.39 97.55,88.39 C99.15,88.39 100.62,88.77 101.94,89.52 C103.26,90.27 104.3,91.29 105.05,92.56 C105.8,93.84 106.18,95.24 106.18,96.78 C106.18,98.32 105.8,99.72 105.05,101 C104.3,102.28 103.26,103.29 101.94,104.04 C100.62,104.79 99.15,105.17 97.55,105.17 C95.91,105.17 94.43,104.79 93.11,104.04 Z M99.98,99.38 C100.62,98.73 100.94,97.86 100.94,96.78 C100.94,95.7 100.62,94.84 99.98,94.18 C99.34,93.53 98.53,93.2 97.55,93.2 C96.6,93.2 95.8,93.53 95.15,94.2 C94.5,94.87 94.17,95.73 94.17,96.77 C94.17,97.82 94.5,98.68 95.15,99.34 C95.8,100.01 96.6,100.35 97.55,100.35 C98.53,100.36 99.34,100.04 99.98,99.38 Z" fill="#FAFAFA"/>
  <path d="M27.67,23.31 L52.08,23.31 L52.08,29.12 L27.67,29.12 L27.67,23.31 Z" fill="#FAFAFA"/>
  <path d="M27.67,39.12 L36.97,39.12 L36.97,56.42 L42.78,56.42 L42.78,39.12 L52.07,39.12 L52.07,33.31 L27.67,33.31 Z" fill="#FAFAFA"/>
  <path d="M84.38,24.18 L84.38,46.74 C83.55,46.46 82.63,46.29 81.66,46.29 C77.9,46.29 74.86,48.66 74.86,51.58 C74.86,54.5 77.9,56.87 81.66,56.87 C85.35,56.87 88.33,54.58 88.44,51.73 L88.46,51.73 L88.46,30.62 L96.61,28.02 L96.61,20.6 L84.38,24.18 Z" fill="#FAFAFA"/>
</svg>
